X:1
T: Whiskey Before Breakfast
C:Reel irlandais traditionnel.  (Peut se danser en scottish...) , fichier abc : Bernard Loffet
L:1/8
Q:320
M:4/4
K:G
|: [DG,,]G [BG,]c [d2G,,2] [d2G,2] | [dG,,]e [dG,]c [BE,,]A [GE,]B | [c2C,,2] [eC,]c [B2G,,2] [dG,]B | \
 [AA,,]G [AA,]B [AD,,]G [FD,]E | [DG,,]G [BG,]c [d2G,,2] [d2G,2] | [dG,,]e [dG,]c [BE,,]A [GE,]B | \
 [c2C,,2] [eC,]c [B2G,,2] [dG,]B | [AD,,]G [AD,]B [G2G,,2] G,2 :|: [dG,,]g G,d [g2G,,2] [g2G,2] | \
 [fD,,]g [aD,]g [fD,,]e [d2D,2] | [eA,,]a A,e [a2A,,2] [aA,]b | [c'C,,]b [aA,]g [fD,,]d [eD,]f | \
 [g2G,,2] [bG,]g [f2D,,2] [aD,]f | [eC,,]d [eC,]f [eG,,]d [BG,]d | [c2A,,2] [eA,]c [B2G,,2] [dG,]B | \
 [AD,,]G [AD,]B [G2G,,2] G,2 :| \
W:Created with TablEdit http://www.tabledit.com/ by Bernard Loffet
